lib/healthicons/icons/outline/typography/rupee.svg

<svg fill="none" height="48" viewBox="0 0 48 48" width="48" xmlns="http://www.w3.org/2000/svg"><path clip-rule="evenodd" d="m15 12c0-1.6569 1.3432-3 3-3h12c1.6569 0 3 1.3431 3 3s-1.3431 3-3 3c1.6569 0 3 1.3431 3 3s-1.3431 3-3 3h-1.5124c-.8788 2.4865-2.818 4.4706-5.2756 5.4097l5.2842 7.9262c.919 1.3786.5465 3.2412-.8321 4.1603-1.3786.919-3.2412.5465-4.1602-.8321l-8-12c-.6138-.9206-.671-2.1042-.1489-3.0797.522-.9754 1.5386-1.5844 2.645-1.5844-1.6568 0-3-1.3431-3-3s1.3432-3 3-3c-1.6568 0-3-1.3431-3-3zm3-1c-.5523 0-1 .4477-1 1s.4477 1 1 1h2c1.852 0 3.4675 1.0074 4.3305 2.4993.1789.3094.1792.6907.0006 1.0003s-.5088.5004-.8662.5004h-5.4649c-.5523 0-1 .4477-1 1s.4477 1 1 1h5.4649c.3574 0 .6876.1908.8662.5004s.1783.6909-.0006 1.0003c-.863 1.4919-2.4785 2.4993-4.3305 2.4993h-2c-.3688 0-.7077.203-.8817.5281-.174.3252-.1549.7197.0497 1.0266l8 12c.3063.4595.9272.5837 1.3867.2774.4595-.3064.5837-.9273.2774-1.3868l-6.0374-9.0561c-.1845-.2767-.2193-.6269-.0931-.9345.1263-.3076.3972-.5323.7228-.5995 2.612-.5396 4.6945-2.5379 5.3551-5.1045.1138-.4418.5122-.7507.9685-.7507h2.252c.5523 0 1-.4477 1-1s-.4477-1-1-1h-2.252c-.4563 0-.8547-.3089-.9685-.7507-.1596-.6201-.4021-1.2071-.7154-1.7486-.1789-.3094-.1792-.6907-.0006-1.0003s.5088-.5004.8662-.5004h3.0703c.5523 0 1-.4477 1-1s-.4477-1-1-1z" fill="#333" fill-rule="evenodd"/></svg>

<svg width="48" height="48" viewBox="0 0 48 48" fill="none" xmlns="http://www.w3.org/2000/svg">
<path fill-rule="evenodd" clip-rule="evenodd" d="M15 12C15 10.3431 16.3432 9 18 9L30 9C31.6569 9 33 10.3431 33 12C33 13.6569 31.6569 15 30 15C31.6569 15 33 16.3431 33 18C33 19.6569 31.6569 21 30 21H28.4876C27.6088 23.4865 25.6696 25.4706 23.212 26.4097L28.4962 34.3359C29.4152 35.7145 29.0427 37.5771 27.6641 38.4962C26.2855 39.4152 24.4229 39.0427 23.5039 37.6641L15.5039 25.6641C14.8901 24.7435 14.8329 23.5599 15.355 22.5844C15.877 21.609 16.8936 21 18 21C16.3432 21 15 19.6569 15 18C15 16.3431 16.3432 15 18 15C16.3432 15 15 13.6569 15 12ZM18 11C17.4477 11 17 11.4477 17 12C17 12.5523 17.4477 13 18 13L20 13C21.852 13 23.4675 14.0074 24.3305 15.4993C24.5094 15.8087 24.5097 16.19 24.3311 16.4996C24.1525 16.8092 23.8223 17 23.4649 17H18C17.4477 17 17 17.4477 17 18C17 18.5523 17.4477 19 18 19H23.4649C23.8223 19 24.1525 19.1908 24.3311 19.5004C24.5097 19.81 24.5094 20.1913 24.3305 20.5007C23.4675 21.9926 21.852 23 20 23H18C17.6312 23 17.2923 23.203 17.1183 23.5281C16.9443 23.8533 16.9634 24.2478 17.168 24.5547L25.168 36.5547C25.4743 37.0142 26.0952 37.1384 26.5547 36.8321C27.0142 36.5257 27.1384 35.9048 26.8321 35.4453L20.7947 26.3892C20.6102 26.1125 20.5754 25.7623 20.7016 25.4547C20.8279 25.1471 21.0988 24.9224 21.4244 24.8552C24.0364 24.3156 26.1189 22.3173 26.7795 19.7507C26.8933 19.3089 27.2917 19 27.748 19H30C30.5523 19 31 18.5523 31 18C31 17.4477 30.5523 17 30 17H27.748C27.2917 17 26.8933 16.6911 26.7795 16.2493C26.6199 15.6292 26.3774 15.0422 26.0641 14.5007C25.8852 14.1913 25.8849 13.81 26.0635 13.5004C26.2421 13.1908 26.5723 13 26.9297 13H30C30.5523 13 31 12.5523 31 12C31 11.4477 30.5523 11 30 11L18 11Z" fill="#333333"/>
</svg>
